X:2231
T:Drogh Vraane 
C:Traditional
O:Isle of Man
S:From George Moore? see Journal of Folk Song Society (number not given) 
Z:Clague collection
B: Kiaull Vannin #231 
L:1/4
M:4/4 
Q:80 
K:D 
B|A G E E|G A B G|A G E E|E3 d/c/|B A B/c/ d|e>c d/c/ B|A G/A/ B B|A3 G/A/| 
B A B/c/ d|e>c d/c/ B|A G E F|G3 D|E E G A|B>c d/c/ B|A G E E|E3|| 

